!!!!SEGMENT: Ric3001-Damours_je_suis_desheritee.krn
!!!id: Ric3001
!!!AGN: Chanson
!!!SCT: Elzinga (1999)
!!!voices: 5
!!!COM: Jean Richafort
!!!OTL: D'amours je suis desheritée
**kern	**kern	**kern	**kern	**kern
*part5	*part4	*part3	*part2	*part1
*staff5	*staff4	*staff3	*staff2	*staff1
*I"Bassus	*I"Tenor II	*I"Tenor I	*I"Altus	*I"Superius
*I'B	*I'T. II	*I'T. I	*I'A	*I'S
*clefF4	*clefGv2	*clefGv2	*clefGv2	*clefG2
*k[b-]	*k[b-]	*k[b-]	*k[b-]	*k[b-]
*d:	*d:	*d:	*d:	*d:
*M2/1	*M2/1	*M2/1	*M2/1	*M2/1
*met(C|)	*met(C|)	*met(C|)	*met(C|)	*met(C|)
=1	=1	=1	=1	=1
0r	0r	0r	0r	1f
.	.	.	.	2g
.	.	.	.	2g
=2	=2	=2	=2	=2
0r	0r	0r	2r	1f
.	.	.	2f	.
.	.	.	2g	1b-y
.	.	.	2e	.
=3	=3	=3	=3	=3
0r	2r	0r	2.f	1a
.	2F	.	.	.
.	.	.	4e	.
.	2G	.	2d	1g
.	2E	.	2e	.
=4	=4	=4	=4	=4
0r	2.F	2r	1c	1.a
.	.	2c	.	.
.	4E	.	.	.
.	2D	2d	1F	.
.	2D	2B-y	.	4g
.	.	.	.	4f
=5	=5	=5	=5	=5
2r	2C	2.c	1G	4e
.	.	.	.	4d
2C	2E	.	.	2.g
.	.	4B-y	.	.
2D	2F	2A	1r	.
.	.	.	.	4f
2BB-y	2D	2B-y	.	[2f
=6	=6	=6	=6	=6
2.C	1E	1G	2r	2f]
.	.	.	2G	2e
4BB-y	.	.	.	.
2AA	1C	1F	2A	[1f
2FF	.	.	[2c	.
=7	=7	=7	=7	=7
1BB-y	2r	1D	4c]	1f]
.	.	.	4B-y	.
.	2F	.	4B-y	.
.	.	.	8AL	.
.	.	.	8B-yJ	.
[1FF	2F	1C	1c	2r
.	2F	.	.	2a
=8	=8	=8	=8	=8
1FF]	2.A	2r	1F	2.cc
.	.	2c	.	.
.	4G	.	.	4b-y
2r	2F	2c	2F	2a
2C	2E	2c	2G	2g
=9	=9	=9	=9	=9
2.F	0D	1.d	2.A	2f
.	.	.	.	2g
4E	.	.	4G	.
2D	.	.	2F	2a
2BB-y	.	2d	[2f	[2b-y
=10	=10	=10	=10	=10
2F	1r	2c	4f]	4b-]
.	.	.	4e	4a
2F	.	2A	2f	1a
2G	2r	1B-y	1d	.
2GG	2D	.	.	2g
=11	=11	=11	=11	=11
0D	0F	1A	2r	0a
.	.	.	2c	.
.	.	2r	[1f	.
.	.	2D	.	.
=12	=12	=12	=12	=12
2r	1r	1F	2f]	1r
2D	.	.	4e	.
.	.	.	4d	.
2F	1A	2r	2c	1a
2F	.	2D	2f	.
=13	=13	=13	=13	=13
1C	1.c	2G	2f	1g
.	.	2G	2e	.
2r	.	2.F	[1f	2r
2F	2c	.	.	2a
.	.	4G	.	.
=14	=14	=14	=14	=14
2F	2c	4A	2f]	2a
.	.	4B-y	.	.
2C	2c	2c	2e	2g
2D	2.F	2d	1d	2f
2D	.	2B-y	.	2f
.	4G	.	.	.
=15	=15	=15	=15	=15
1.AA	1.A	1.c	[0c	[0e
2BB-y	4G	4B-y	.	.
.	4F	4A	.	.
=16	=16	=16	=16	=16
[0C	1.E	[0G	0c_	0e_
.	2F	.	.	.
=17	=17	=17	=17	=17
0C;]	0G;	0G;]	0c;]	0e;]
=18	=18	=18	=18	=18
1FF	1F	1A	1c	1f
2C	2E	2G	2c	2g
2C	2E	2G	2c	2g
=19	=19	=19	=19	=19
0FF	1F	1A	4c	1f
.	.	.	4B-y	.
.	.	.	4A	.
.	.	.	4G	.
.	2r	2r	2F	2r
.	2F	2c	2f	2a
=20	=20	=20	=20	=20
1r	2G	2c	2f	2b-y
.	2G	2B-y	2e	2b-y
2r	1F	[1c	2f	1a
2F	.	.	2a	.
=21	=21	=21	=21	=21
2E	0r	2c]	2g	2r
2D	.	2F	2.a	2f
1F	.	4F	.	1a
.	.	4G	4g	.
.	.	4A	[2f	.
.	.	4B-y	.	.
=22	=22	=22	=22	=22
1C	1r	1c	2f]	1g
.	.	.	2e	.
1r	2r	2A	1f	1f
.	2F	2A	.	.
=23	=23	=23	=23	=23
1r	2E	2G	2r	1b-y
.	2D	2F	2.f	.
2r	2.F	2.A	.	1a
.	.	.	4e	.
2F	.	.	4c	.
.	4E	4B-y	4d	.
=24	=24	=24	=24	=24
2E	2C	2c	2e	2g
2D	1F	2F	2f	1a
1F	.	2A	1c	.
.	4E	2A	.	4g
.	4D	.	.	4f
=25	=25	=25	=25	=25
1.C	1.E	1.G	[0c	4e
.	.	.	.	4d
.	.	.	.	4c
.	.	.	.	4d
.	.	.	.	4e
.	.	.	.	4f
2C	[2C	4F	.	[2g
.	.	4E	.	.
=26	=26	=26	=26	=26
2AA	2C]	1A	0c]	4g]
.	.	.	.	4f
2FF	2D	.	.	1f
1C	1E	1G	.	.
.	.	.	.	2e
=27	=27	=27	=27	=27
00FFl	00Cl	00Fl	00Al	00fl
==	==	==	==	==
*-	*-	*-	*-	*-
!!!system-decoration: [*]
!!!RDF**kern: i = editorial accidental
!!!RDF**kern: l = terminal long
!!!ENC: Benjamin Ory
!!!END: 2021/1/7
!!!EED: Benjamin Ory
!!!EEV: 2021/05/02
!!!YEC: Copyright 2021 Benjamin Ory, All Rights Reserved
!!!ONB: Translated from MusicXML on 2021/05/02
